X:1
T:Title
%%score 1 { 2 | 3 }
L:1/8
Q:1/4=95
M:4/4
K:Eb
V:1 treble nm="Grand Piano, Soprano"
V:2 bass nm="Choir Pad, Look Beyond!"
V:3 bass 
V:1
 [EG]>[FA] [GB]2- [GB][EG] E>[Ac] | [GB]>[_G=A] [_Ac][=GB]- [GB]3- [GB]/ z/ | %2
w: By~Harold~B.~Adams,~1880 * * * * * *||
 [EG]>[FA] [GB]2- [GB][GB][Gc][Ge] | [Fd]>[Ec] [DB]6 | [EG]>[FA] [GB]2- [GB][EG] E>[Ac] | %5
w: |||
 [GB]>[_G=A] [_Ac][=GB]- [GB]3- [GB]/ z/ | [GB]>[GB] [Ac]2- [Ac][Ac][Fd][Fd] | [Ac]>[Ad] [Ge]6 | %8
w: |||
 [Ge]>[Ge] [Ad]2- [Ad][Ad][Ad][Ad] | [Ac]>[Ad] [Ge][GB]- [GB]3- [GB]/ z/ | %10
w: ||
 [GB]>[GB] [Ac]2- [Ac][Ac][=Ac][Ac] | [=Ad]>[Ac] [Bd]6 | [Ad]>[Ac] [GB]2- [GB][EG] E>[Ac] | %13
w: |||
 [GB]>[_G=A] [_Ac][=GB]- [GB]3- [GB]/ z/ | [GB]>[GB] [Ac]2- [Ac][Ac][Fd][Fd] | [Ac]>[Ad] [Ge]6- | %16
w: |||
 [Ge]2 z2 z4 |] %17
w: |
V:2
 B,>B, E2- EB, G,>A, | B,>[K:treble]E EE- E3- E/ z/ | B,>B, E2- EEEC | B,>=A, B,6 | %4
 B,>B, E2- EB, G,>A, | B,>[K:treble]D EE- E3- E/ z/ | E>E E2- EE[K:bass]B,B, | B,>B, B,6 | %8
 B,>B, B,2- B,B,B,B, | B,>B, B,[K:treble]E- E3- E/ z/ | E>E E2- EEEE | C>C[K:bass] B,6 | %12
 B,>B, B,2- B,B, G,>A, | B,>[K:treble]E EE- E3- E/ z/ | E>E E2- EE[K:bass]B,B, | B,>B, B,6- | %16
 B,2 z2 z4 |] %17
V:3
 E,>E, E,2- E,E, E,>E, | E,>E, E,E,- E,3- E,/ z/ | E,>E, E,2- E,E,C,C, | F,>F, B,,6 | %4
 E,>E, E,2- E,E, E,>E, | E,>E, E,E,- E,3- E,/ z/ | E,>E, A,2- A,A, z2 | B,,>B,, E,6 | %8
 E,>E, B,,2- B,,B,,B,,B,, | B,,>B,, E,E,- E,3- E,/ z/ | E,>E, A,2- A,A,F,F, | F,>F, z2 z4 | %12
 B,,>B,, E,2- E,E, E,>E, | E,>E, E,E,- E,3- E,/ z/ | E,>E, A,2- A,A, z2 | B,,>B,, E,6- | %16
 E,2 z2 z4 |] %17

